X:1
T:Dragonetti
T:Concierto para Contrabajo G 
%%score 1 { ( 2 4 6 ) | ( 3 5 ) }
L:1/8
Q:1/4=100
M:4/4
K:G
V:1 bass nm="Piano"
V:2 treble nm="Piano"
V:4 treble 
V:6 treble 
V:3 bass 
V:5 bass 
V:1
"^C.Bajo""^Allegro moderato""^E. NANNY\n Nº. 23\n*Los clásicos del contrabajo*" z8 | z8 | z8 | z8 | %4
 z8 | z8 | z8 | z8 | z8 | z8 |"^Contrabajo" z8 |!f! G4 B4 | d4- d/D,/c/D,/ B/D,/A/D,/ | %13
 G/D,/G/D,/ F/D,/E/D,/ D/D,/C/D,/ B,/D,/A,/D,/ | %14
 G,/D,/E,/F,/ G,/A,/B,/A,/ G,/D,/E,/F,/ G,/A,/B,/C/ | %15
 D/^C/D/E/ F/G/A/B/!<(! =c/B/A/G/ B/A/G/F/!<)! | %16
 G/D/E/F/ G/A/B/c/ (3d!plus!G!2!B[K:treble] (3!open!!3!d!open!!plus!g!open!!1!b | %17
 !open!!2!d'4[K:bass]!ff! v[D,F]4 | !arpeggio!v[G,B,DG]2 z2 z4 | z8 | z8 | z8 |!mf! vD,4 (F2 D2) | %23
 A4- A(B/A/ G/F/E/D/) | (^C/B,/A,/B,/ C/D/E/F/) (GB)AG | (G4 F) z d2 | d4- d(^cBA) | (A4 ^G) z d2 | %28
 d4- d(BA=G) | GF F4!p! (E/F/)G/A/ | B/A/B/A/ G/F/E/D/ B/A/B/A/ G/F/E/D/ | %31
 A/B/A/G/ F/E/D/^C/ B,/A,/G,/F,/ E,/D,/^C,/B,,/ | (A,,>B,,) (3^C,D,E, (3F,E,D, (3E,F,G, | %33
 (3A,G,F, (3G,A,B, (3^CB,A, (3B,CD | (3ED^C (3DEF (3GFE (3FGB | %35
 A(d/^c/) B/A/G/F/ E/D/^C/B,/ A,/G,/F,/E,/ |!f! D,4 (uF,3 E,) | D,4 z4 | z8 | z8 | z8 | %41
!mf! A,,4 uA3 A | AG/A/ (B/A/)G/B/ A(B/A/) G/F/F/D/ | (3EFG (3AB^c (3(dA).A (3(AG).F | %44
 (3(GF).E (3(ED).^C (!>!D>A,) (3uB,CD | (3EB,^C (3DEF (3GEF (3GAB | %46
 (3AFG (3AB^c[K:treble] (3!open!!3!d!open!A!open!!plus!d (3!1!f!open!!plus!d!open!!1!f | %47
 (3!open!!3!a!open!!plus!d!open!!1!f (3!open!!2!a!open!!1!f!open!!2!a (3!open!!3!d'!open!!2!a!open!!1!f (3!open!!2!a!open!!1!f!open!!plus!d | %48
 !open!!2!e4- e z[K:bass] A->A | AG/A/ (B/A/)G/B/ (3ABA (3GAB | (3=cBA (3AGF (3cBA (3AGF | %51
 Gd^cB (3(BA).G (3(GF).E | F/D,/E/D,/ F/D,/G/D,/ A/D,/B/D,/ ^c/D,/d/D,/ | %53
!f! A,,4- (3A,,D,F, (3A,!plus!D!2!F | %54
 !open!!3!A!open!!plus!d[K:treble] !open!!1!f!open!!2!a !open!!2!d'!open!!2!a !open!!1!f!open!!plus!d | %55
 T!1!!2!e8 |({de)} d2 z2 z4 | z8 | z8 | z8 | z8 | z8 | z8 | z8 |[K:bass]!f! (Dd) d3 c/B/ c2- | %65
 cB/A/ (3BAG AD G2- | GG/B/ A/G/A/B/ GG/B/ A/G/A/B/ | c/c/B/A/ G/F/E/D/ C2 z2 | %68
!<(! (Cc) c3 B/A/ B2-!<)! | BA/G/ (3AGF GB D2- | DG/B/ A/G/F/E/ F/B/A/G/ F/E/D/C/ | %71
 B,/B,/C/D/ E/F/G/A/ B2 z2 |!mf! (!>!E,>B, (3EGB) (!>!c>A (3GFE) | %73
!>(! (^D>B,) (3(B,^A,B,) (3(^D!<(!=D^D) (3(F^EF)!>)!!<)! | (B>=E) (3(E^DE) (3(GFG) (3(B^AB) | %75
[K:treble] e2[K:bass] (3(A,^G,A,)!<(! (3(^C=C^C) (3(E^DE)!<)! | (A>=D) (3(D^CD) (3(F^EF) (3(A^GA) | %77
 d2 (3(D^CD) (3(GFG) (3(B^AB) | %78
 d2 (3uD,F,A, (3!open!!plus!D!2!F!open!!3!A[K:treble] (3!open!!plus!d!open!!1!f!open!!2!a | %79
 !fermata!!open!!2!d'4 z4 |[K:bass]!f! G4 B4 | d4- d/D,/c/D,/ B/D,/A/D,/ | %82
 A/D,/G/D,/ F/D,/E/D,/ D/D,/C/D,/ B,/D,/A,/D,/ | %83
 G,/D,/E,/F,/ G,/A,/B,/A,/ G,/D,/E,/F,/ G,/A,/B,/C/ | D/^C/D/E/ F/G/A/B/ =c/B/A/G/ B/A/G/F/ | %85
!<(! G/D/E/F/ G/A/B/c/ (3d!plus!G!3!B[K:treble] (3!open!!3!d!open!!plus!g!open!!1!b!<)! | %86
 !open!!2!d'4[K:bass]!ff! v[D,F]4 | !arpeggio!v[G,B,DG]2 z2 z4 | z8 | z8 | z8 | %91
!f! !>!c3 (B/A/) GFED | DCB,A, G,F,E,D, | !>!C,4- (3(C,B,,C,) (3(!>!E,G,C) | %94
 (3!>!EGc (3!>!cAG (3!>!F(D^C (3!>!D)[K:treble]d=c | %95
 (3!>!B(gf (3!>!g)(d^c (3!>!d)[K:bass](BA (3!>!G)FE | %96
 (3!>!D(GF (3!>!G)(D^C (3!>!D)(B,^A, (3!>!B,)G,E, | %97
 (3!>!D,F,A, (3!>!!plus!D!2!F!open!!3!A[K:treble] (3!>!!open!!plus!d!open!!1!f!open!!2!a (3!>!!open!!3!=c'!open!!2!a!open!!1!f | %98
 (3!>!!open!!plus!g!open!!1!b!open!!2!d' !>!!open!!3!g'2 z4 | %99
[K:bass] !>!C,(D,/E,/) =F,/G,/A,/B,/ C/G,/A,/B,/!<(! C/D/E/=F/!<)! | G/C/D/E/ =F/G/A/B/ c2 z2 | %101
 !>!D,(E,/^F,/) G,/A,/B,/C/ D/G,/A,/B,/!<(! C/D/E/F/!<)! | G/D/E/F/[K:treble] G/A/B/c/ d2 (ug>g) | %103
 (3(gd)d (3(dB).B (3(B!open!!plus!G).G (3(!open!!plus!G!open!!plus!D).D | %104
 (3(!plus!Dc).c (3(cA).A (3(AF).F (3(FD).D | %105
 (D/g/).g/.g/ (g/d/).d/.d/ (d/B/).B/.B/ (!>!A/G/).F/.E/ | %106
[K:bass]!<(! (!>!F/E/)D/C/ (B,/A,/)G,/F,/ G,2 z2!<)! | %107
!p! (3!plus!D!plus!G!2!B[K:treble] (3!open!!3!d!open!!plus!g!open!!1!b (3!open!!2!d'!open!!3!c'!open!!1!b !>!!open!!3!c'2 | %108
[K:bass] (3!plus!D!2!F!open!!3!A[K:treble] (3!open!!plus!d!open!!1!f!open!!2!a (3!open!!3!c'!open!!1!b!open!!2!a !>!!open!!1!b2 | %109
[K:bass] (3!plus!G!2!B[K:treble] !open!!3!d (3!open!!plus!g!open!!1!b!open!!2!d' (3!open!!3!g'!open!!2!d'!open!!1!b (3!open!!2!a!open!!plus!e'!open!!plus!e' | %110
 (3!open!!2!d'!open!!1!b!open!!plus!g (3!open!!3!c'!open!!2!a!open!!1!f (3!open!!plus!g!open!!1!b!open!!3!g (3!open!!3!d!2!B!plus!G | %111
 (3DGB (3dgb (3d'c'b !>!c'2 | (3DFA (3dfa (3c'ba !>!b2 | (3GBd (3gbd' (3g'd'b (3ae'e' | %114
 (3d'bg (3c'af g2 z2 |[K:bass]!f! !>!D,(D,/E,/) F,/G,/A,/B,/ C/D,/E,/F,/ G,/A,/B,/C/ | %116
 D/G,/A,/B,/ C/D/E/F/ G/D/E/F/ G/A/B/c/ | d/D,/c/D,/ B/D,/A/D,/ A/D,/G/D,/ F/D,/E/D,/ | %118
 D/D,/C/D,/ B,/D,/A,/D,/ G,/D/C/B,/ A,/G,/F,/E,/ | !>!D,4!ff! v[D,F]4 | %120
 !arpeggio!v[G,B,DG]2 z2[K:treble]"^Cédez" [db]2 z2 |[K:bass]!f! G,8 |] %122
V:2
!mf! [B,D]/G,/[B,D]/G,/ [B,D]/G,/[B,D]/G,/ [B,D]/G,/[B,D]/G,/ [B,D]/G,/[B,D]/G,/ | %1
 [A,D]/F,/[A,D]/F,/ [A,D]/F,/[A,D]/F,/- [F,A,F]4 | z8 | %3
 [B,D]/G,/[B,D]/G,/ [B,D]/G,/[B,D]/G,/"^DRAGONETTI\n                      (1763-1846)\n\nAlex Nuñez Transcripción Digital" [B,D]/G,/[B,D]/G,/ [B,D]/G,/[B,D]/G,/ | %4
 !>![A,D]/F,/[A,D]/F,/ [A,D]/F,/[A,D]/F,/ !>![DF]/A,/[DF]/A,/ [DF]/A,/[DF]/A,/ | %5
 !>![CE]/A,/[CE]/A,/ [CE]/A,/[CE]/A,/ [CE]/A,/[CE]/A,/ [CE]/A,/[CE]/A,/ | %6
 E/B,/E/B,/ E/B,/E/B,/ G/E/G/E/ G/E/G/E/ |!<(! !>!d8!<)! | !>!c4 !>!e4 | d4- dcBA | AGFE DCB,A, | %11
 [G,B,D][G,B,D] [G,B,D][G,B,D] [G,B,D][G,B,D] [G,B,D][G,B,D] | [A,D][A,D][A,D][A,D] D4- | D4 z4 | %14
 !>![G,B,D]4 !>![G,DG]4 | !>![A,DF]8 | [G,DG]4 [B,DG]4 | z2 [DGBd] z z2 [CDF] z | %18
 [B,DG][K:bass] D,E,F, G,A,B,A, | G,D,E,F, G,A,B,C |[K:treble] D_D=DE FEFG | %21
 ([FA][EG][DF][_DE]) ([FA][EG][=DF][_DE]) | %22
[K:bass] [F,A,D][F,A,D][F,A,D][F,A,D] [F,A,D][F,A,D][F,A,D][F,A,D] | %23
 [D,A,D][D,A,D][D,A,D][D,A,D] [D,A,D][D,A,D][D,A,D][D,A,D] | [E,A,_D]4 (D2 E2) | (E2 _D2 =D2) z2 | %26
 z [F,B,D][F,B,D][F,B,D] [F,B,D]4 | z [E,B,D][E,B,D][E,B,D] [E,B,D]2 z2 | %28
 z [G,B,D][G,B,D][G,B,D] [G,B,D]4 | z [F,A,D][F,A,D][F,A,D] [F,A,D]2[K:treble] [A,E]2 | %30
 !>!G4 !>!B4 |!mp! !>![DAd]8 |!p! [G,_D]8- | [G,D]8- | [G,D]2 z2 z4 | A,2 B,4- _D2 | z8 | %37
 [F,A,D] (!tenuto![DA]!tenuto![DA]!tenuto![DB] !tenuto![DB]!tenuto![Gd]!tenuto![Gd]!tenuto![Ae]) | %38
 [Ae]2- [Ae] z z4 | %39
 z (!tenuto![A,E]!tenuto![A,E]!tenuto![A,F] !tenuto![A,F]!tenuto![DA]!tenuto![DA]!tenuto![EB] | %40
 [EB]2- [EB]) z z4 | z [Ae][Ae][_da] [da][Ae][Ae][Gd] | (_d2 G2) =d4 | [EA]4 [DA]4 | G4 [=DF]4 | %45
 ([G,B,E]2 [F,A,D]2 [E,G,_D]4) | ([F,A,D]2 [G,_DE]2 [A,=DF]4) |!mf! !>![F,A,D]4 !>![A,DF]4 | %48
 [A,_DEA]4- [A,DEA] z z2 |!p! [Ae]4 [Ae]2 [Gg]2 | f6 d2 | (d2 _d2 B2 A2) | %52
 [A,FA][G,G][A,A][B,B] [_D_d][=D=d][Ee][Ff] |!f! !>![A,DF]2 !>![DFA]2 !>![FAd]4- | [FAd]4 [A,DF]4 | %55
 D6 _D2 |!p! [F,A,D][F,A,D][F,A,D][F,A,D] [A,DF][A,DF][A,DF][A,DF] | %57
 [A,DF][A,DF][A,DF][A,DF] [G,DG][G,DG][G,DG][G,DG] | %58
!mf! [A,_DA][A,DA][DEA][DEA] [EA_d][EAd][EAd][EAd] | [DGd][DGd][DGd][DGd] [_DGe][DGe][DGe][DGe] | %60
!>(! [DFA][DFA][DFA][DFA] [DGB][DGB][DGB][DGB]!>)! | [_DEB][DEB][DEB][DEB] [=DA][DA][DA][DA] | %62
 [A,DA][A,DA][A,DA][A,DA] [G,DG][G,DG][G,DG][G,DG] | %63
 [G,B,G][G,B,G][G,A,E][G,A,E] [E,A,E][E,A,E][E,A,E][E,A,E] | %64
!p! ([FAd][FAd][FAd][FAd] [FAd][FAd][FAd][FAd]) | [Gd][Gd][Gd][Gd] [Fd][Fd][Gd][Gd] | %66
 .[DGB] z .[DFA].[DFA] .[DGB] z .[DFA].[DGB] | c4- c z z2 | [Ae][Ae][Ae][Ae] [dg][dg][dg][dg] | %69
 [Ae][Ae][Ad][Ad] [Gd][Gd][Gd][Gd] | ([FA][GB] [FA]2-) ([FA][GB] [FA]2) | [DG] z z2 z4 | E8 | %73
 [F,B,_E]8 | [B,E]8 | [E,A,]8 | [D,A,]8 | [G,D]4!<(! [B,DG]4!<)! |!>(! [A,DF]8!>)! | %79
 !fermata!D4 z4 | [G,B,D][G,B,D] [G,B,D][G,B,D] [G,B,D][G,B,D] [G,B,D][G,B,D] | %81
 [A,D][A,D][A,D][A,D] D4- | D4 z4 | !>![G,B,D]4 !>![G,DG]4 | !>![A,DF]8 |!<(! [G,DG]4 [B,DG]4!<)! | %86
 z2 [DGBd] z z2 [CDF] z | [B,DG]3 F/E/ DCB,A, |[K:bass] G,F,E,D, C,B,,A,,G,, | %89
 =F,,4- (3F,,F,,G,, (3C,E,=F, |!<(! (3G,C,E, (3G,A,B,[K:treble] (3CE=F (3GAB!<)! | %91
 [EGc]2- [EGc] z z4 | z8 | z8 | [CGc]2 [EAc]2 [DAc]2 [FAd]2 | [GBd]4 [DGB]4 | %96
 [B,DG]4[K:bass] [G,B,D]2 [D,G,B,]2 | [D,A,C]8 | [D,G,B,]4- [D,G,B,] z z2 | %99
[K:treble]!f! [G,C] z z [G,B,D] [G,CE] z z [A,C=F] | [G,CG] z z2 z2 [G,CE] z | %101
 ([F,A,CD]4 [G,B,]2 [F,A,C]2 | [G,B,D]4- [G,B,D]) z z2 | (d2 g2 d2 B2) | (A2 c2 A2 F2) | %105
 (G2 d2 B2 A2) |!<(! D4-!f! D2 z2!<)! | (D6 C2) | (C6 B,2) | [DG]6 [EG]2 | %110
 [B,DG]2 [A,CF]2 [G,B,G]2 [G,B,D]2 | (D6 C2) | (C6 B,2) | [G,D]6 [G,E]2 | %114
 [G,B,]2 [F,A,]2 [G,B,]2 z2 |[K:bass] !>![C,D,]4 !>![D,F,]4 | !>![B,,D,G,]4!<(! !>![D,G,B,]4!<)! | %117
 [D,F,D]8- | [D,F,D]4 [D,G,D]2 [E,G,E]2 | z2[K:treble] [DGBd]2 z2 [CDF]2 | %120
 .[G,B,DG] [G,G][G,G][G,G] [G,G][G,G][G,G][G,G] | [G,B,DG]8 |] %122
V:3
"^Piano" [G,,,G,,]4 [B,,,B,,]4 | [D,,D,-]4 D,C,B,,A,, | A,,G,,F,,E,, D,,C,,B,,,A,,, | %3
 [G,,,G,,]4 [B,,,B,,]4 | [D,,D,]8 | [A,,,A,,]4 [C,,C,]4 | [E,,E,]8 | [B,,,B,,]4 [D,,D,]4 | %8
 [E,,E,]4 [C,,C,]4 | [B,,,B,,]4 [C,,C,]4- | [C,,C,]4 [D,,D,]4 | G,,8 | D,D,D,D, D,,4- | D,,4 z4 | %14
 !>![G,,D,]4 !>![B,,D,]4 | !>!D,8 | B,,4 G,,4 | z2 [D,,D,] z z2 [D,,D,] z | %18
 [G,,,G,,] [D,,,D,,][E,,,E,,][F,,,F,,] [G,,,G,,][A,,,A,,][B,,,B,,][A,,,A,,] | %19
!<(! [G,,,G,,][D,,,D,,][E,,,E,,][F,,,F,,] [G,,,G,,][A,,,A,,][B,,,B,,][C,,C,]!<)! | %20
 [D,,D,][_D,,_D,][=D,,=D,][E,,E,] [F,,F,][E,,E,][F,,F,][G,,G,] | [A,,A,]4 [A,,,A,,]4 | D,,8 | %23
 G,,8 | G,,4 (E,,2 A,,,2) | D,,6 z2 | B,,8 | E,,6 z2 | [B,,,B,,]4 [G,,,G,,]4 | [D,,D,]6 C,2 | %30
!<(!{/B,,} B,4 G,4!<)! | [F,A,]8 | [A,,,A,,]8- | [A,,,A,,]8- | [A,,,A,,]2 z2 z4 | [A,,,A,,]8 | %36
 [A,,,A,,]4 A,,4- | %37
!ped! [D,,A,,] (!tenuto![F,A,]!tenuto![F,A,]!tenuto![G,B,] !tenuto![G,B,]!tenuto![B,D]!tenuto![B,D]!tenuto![_DE])!ped-up! | %38
 z2 A,2- (A, _D2 B,) | A,2- A, z z4 | [_A,B,]2-!>(! [A,B,] z z4!>)! | %41
[K:treble] z ([_DE][DE][EG] [EG][DE][DE][A,D]) |[K:bass] _D4 =D4 | [G,_D]4 F,4 | G,4 F,4 | A,,8- | %46
 A,,8 | A,,8 | [A,,,A,,]2 [_D,,_D,]2 [E,,E,]2 [A,,A,][K:treble] z | [_DE]4 [C=D]2 [B,D]2 | %50
 C2 z2 z4 |[K:bass] (B,2 E,2 G,2 _D,2 | D,8) | [A,,,A,,]8- | [A,,,A,,]8 | [A,,,A,,]8 | %56
 (D,,D, (D,3) C,/)B,,/ C,2 | (D,,C, (C,3) B,,/A,,/ B,,2) | (A,,A, (A,3) G,/F,/ G,2) | %59
 (B,,B, (B,3) A,/G,/ A,2) | ((A,,A, ((A,3)) G,/F,/ G,2)) | (G,,G, (G,3) F,/E,/ F,2) | %62
 (F,,F, (F,3) E,/D,/ E,2) | (E,,E, (E,2 E,/)D,/_D,/B,,/ D,2) | (DDDD DDDD) | %65
 [B,D][B,D][B,D][B,D] [A,D][A,D][B,D][B,D] | .[G,B,] z .[D,A,].[D,A,] .[G,B,] z .[D,A,].[G,B,] | %67
 E,2 C,2 A,, z z2 |[K:treble] [CE][CE][CE][CE] [DG][DG][DG][DG] | %69
 [CE][CE][CD][CD] [B,D][B,D][B,D][B,D] |[K:bass] (A,B, (A,2) (A,)B,) A,2 | %71
 D,/D,/E,/F,/ G,/A,/B,/C/ D2 z2 | E,,4 A,,4 | B,,4 A,,4 | G,,4 E,,4 | _D,,4 A,,,4 | %76
{/G,,,} F,,4 D,,4 | [B,,,B,,]4 [G,,,G,,]4 | [D,,D,]8 |!>(! !fermata![D,,,D,,]4 z4!>)! | G,,8 | %81
 D,D,D,D, D,,4- | D,,4 z4 | !>![G,,D,]4 !>![B,,D,]4 | !>!D,8 | B,,4 G,,4 | %86
 z2 [D,,D,] z z2 [D,,D,] z | G,3 F,/E,/ D,C,B,,A,, | G,,F,,E,,D,, C,,B,,,A,,,G,,, | %89
 =F,,,4- (3F,,,E,,,G,,, (3C,,E,,=F,, | (3G,,C,,F,, (3G,,A,,B,, (3C,E,=F, (3G,A,B, | %91
!ped!{/C,,} [C,G,C]2- [C,G,C] z z4!ped-up! | z8 | z2 .E,,, z z4 | z8 | z8 | z8 | [D,,,D,,]8 | %98
 z4 [G,,,G,,] z z2 | [C,E,] z z [G,,D,] [C,,C,] z z [=F,,C,] | [E,,C,] z z2 z2 [C,,C,] z | %101
 [D,,D,]8- | [D,,D,]4- [D,,D,] z z2 | B,,4 G,,4 | F,4 C4 | B,4 G,2 F,2 | ([C,D,]4 [B,,D,]2) z2 | %107
 B,,4 A,,4 | D,,4 G,,4 | [B,,G,]6 [C,G,]2 | D,4 G,,4 | [B,,G,]4 [A,,F,]4 | [D,F,]4 [G,,G,]4 | %113
 B,,6 A,,2 | (D,4 G,,2) z2 | [D,,,D,,]8- | [D,,,D,,]8- | [D,,,D,,-]8 | D,,3 C,, B,,,2 C,,2 | %119
 [D,,,D,,]2 [D,G,B,]2 [D,,,D,,]2 [D,,D,]2 | %120
 .[G,,,G,,] !>![G,,G,]!>![F,,F,]!>![E,,E,] !>![D,,D,]!>![C,,C,]!>![B,,,B,,]!>![A,,,A,,] | %121
 [G,,,G,,]8 |] %122
V:4
 x8 | x8 | x8 | x8 | x8 | x8 | !>!G4 !>!B4 | F/D/F/D/ F/D/F/D/ F/D/F/D/ F/D/F/D/ | %8
 G/C/G/C/ G/C/G/C/ G/E/G/E/ G/E/G/E/ | G/D/G/D/ G/D/G/D/ E2 z2 | x8 | x8 | x8 | x8 | x8 | x8 | x8 | %17
 x8 | x[K:bass] x7 | x8 |[K:treble] x8 | x8 |[K:bass] x8 | x8 | x4 G,4 | G,4 F,2 z2 | x8 | x8 | %28
 x8 | x6[K:treble] x2 | D8 | x8 | x8 | x8 | x8 | F,4!<(! G,4!<)! | x8 | x8 | x8 | x8 | x8 | x8 | %42
 x4 (A2 B2) | x8 | (D2 _D2) A,4 | x8 | x8 | x8 | x8 | x8 | A8 | G4 E4 | x8 | x8 | x8 | A,4 G,4 | %56
 x8 | x8 | x8 | x8 | x8 | x8 | x8 | x8 | x8 | x8 | x8 | G2 E2 C z z2 | x8 | x8 | D8 | x8 | %72
 [G,B,]4 [A,C]4 | x8 | E,4 G,4 | E4 _D4 | D4 F,4 | x8 | x8 | ([F,A,][G,B,] !fermata![F,A,]2) x4 | %80
 x8 | x8 | x8 | x8 | x8 | x8 | x8 | x8 |[K:bass] x8 | x8 | x4[K:treble] x4 | x8 | x8 | x8 | x8 | %95
 x8 | x4[K:bass] x4 | x8 | x8 |[K:treble] x8 | x8 | x8 | x8 | G8 | D8 | D8 | (A,4 G,2) z2 | %107
 G,4 F,4 | A,4 G,4 | x8 | x8 | G4 F4 | A4 G4 | x8 | D4- D2 z2 |[K:bass] x8 | x8 | x8 | x8 | %119
 x2[K:treble] x6 | x8 | x8 |] %122
V:5
 x8 | x8 | x8 | x8 | x8 | x8 | x8 | x8 | x8 | x8 | x8 | x8 | F,,4 [D,F,]4- | [D,F,]4 z4 | x8 | x8 | %16
 x8 | x8 | x8 | x8 | x8 | x8 | x8 | x8 | x8 | x8 | x8 | x8 | x8 | x8 | x8 | x8 | x8 | x8 | x8 | %35
 x8 | x4 F,,3 E,, | x8 | [_DE]2- [DE] z z4 | z ([_D,E,][D,E,][=D,F,] [D,F,][F,A,][F,A,][_A,B,]) | %40
 z2 !>!E,,3- _A,,F,,E,, |[K:treble] x8 |[K:bass] (A,2 G,2 F,2 G,2) | x8 | (E,2 A,,2) A,,4 | x8 | %46
 x8 | x8 | x7[K:treble] x | x8 | D2 _E2 D2 C2 |[K:bass] x8 | x8 | x8 | x8 | x8 | x8 | x8 | x8 | %59
 x8 | x8 | x8 | x8 | x8 | x8 | x8 | x8 | C4 A, z z2 |[K:treble] x8 | x8 |[K:bass] D,8 | %71
 B, z z2 z4 | x8 | x8 | x8 | x8 | x8 | x8 | x8 | x8 | x8 | F,,4 [D,F,]4- | [D,F,]4 z4 | x8 | x8 | %85
 x8 | x8 | x8 | x8 | x8 | x8 | x8 | x8 | x8 | x8 | x8 | x8 | x8 | x8 | x8 | x8 | x8 | x8 | G,8 | %104
 D,8 | D,8 | x8 | x8 | x8 | x8 | x8 | x8 | x8 | x8 | x8 | x8 | x8 | x8 | x8 | x8 | x8 | x8 |] %122
V:6
 x8 | x8 | x8 | x8 | x8 | x8 | x8 | x8 | x8 | x8 | x8 | x8 | x8 | x8 | x8 | x8 | x8 | x8 | %18
 x[K:bass] x7 | x8 |[K:treble] x8 | x8 |[K:bass] x8 | x8 | x8 | x8 | x8 | x8 | x8 | %29
 x6[K:treble] x2 | x8 | x8 | x8 | x8 | x8 | D6 B,A, | x8 | x8 | x8 | x8 | x8 | x8 | x8 | x8 | x8 | %45
 x8 | x8 | x8 | x8 | x8 | x8 | x8 | x8 | x8 | x8 | E8 | x8 | x8 | x8 | x8 | x8 | x8 | x8 | x8 | %64
 x8 | x8 | x8 | x8 | x8 | x8 | x8 | x8 | x8 | x8 | x8 | x8 | x8 | x8 | x8 | x8 | x8 | x8 | x8 | %83
 x8 | x8 | x8 | x8 | x8 |[K:bass] x8 | x8 | x4[K:treble] x4 | x8 | x8 | x8 | x8 | x8 | %96
 x4[K:bass] x4 | x8 | x8 |[K:treble] x8 | x8 | x8 | x8 | x8 | x8 | x8 | x8 | x8 | x8 | x8 | x8 | %111
 x8 | x8 | x8 | x8 |[K:bass] x8 | x8 | x8 | x8 | x2[K:treble] x6 | x8 | x8 |] %122

